X: 154
T: By the Pale Silvery Light of the Moon
M:4/4
R:reel
L:1/8
Z:added by Alf 
K:D
 Adf|aa^ga gecA|de f/d/B .dz|
|:ag|fage d2dc|BedB A2df|aa^ga fdcd|e6ag|
fage d2dc|BedB A2df|aa^ga gecA|d6:|
